X:2

T:Barrowburn Reel, The

R:Reel

C:Addie Harper

M:C|

L:1/8

K:D

|:A2|"D"D2DE "D7"FAAd|"G"B2BA BddB|"D"A2AB "Bm"d2de|"Em"fedB "A7"AFEF|

"D"D2DE "D7"FAAd|"G"B2BA Bdde|"D"f2af "A7"egfe|"D"dBABd2:||:cd|"A7"e2ef

ecBA|"D"f2fg fdBA|"Em"g2ga gecA|"D"a2agf2ef|"A7"g2ga gecA|"D"a2ag "D7"f2

ef|"G"g2ag "D"f2ed|"A7"BAAB "D"d2:|

           

BARRY’S DELIGHT.  English, Country Dance Tune (2/4 time). D Major. Standard tuning. AABB. The melody also appears in John Johnson’s 200 Favourite Country Dances, vol. 8 (London, 1758).  Thompson (Compleat Collection of 200 Favourite Country Dances, vol. 1), 1757; No. 158.

